X: 31836
T: Paudeen O'Rafferty
R: jig
M: 6/8
K: Gmajor
GAB D3|GAB AGe|dAB D3|GAG Ged|
GAB D3|GAB d2 e|dcB AGA|BGG G2:|
dBB dBB|dBA G2 B|dBB dBB|GAG GED|
dBB dBB|dBd G2 e|dBB AGA|BGG G2:|

